src/img/add.svg

<svg height="512pt" viewBox="0 0 512 512" width="512pt" xmlns="http://www.w3.org/2000/svg"><path d="m437.019531 74.980469c-48.351562-48.351563-112.640625-74.980469-181.019531-74.980469s-132.667969 26.628906-181.019531 74.980469c-48.351563 48.351562-74.980469 112.640625-74.980469 181.019531s26.628906 132.667969 74.980469 181.019531c48.351562 48.351563 112.640625 74.980469 181.019531 74.980469s132.667969-26.628906 181.019531-74.980469c48.351563-48.351562 74.980469-112.640625 74.980469-181.019531s-26.628906-132.667969-74.980469-181.019531zm-181.019531 397.019531c-119.101562 0-216-96.898438-216-216s96.898438-216 216-216 216 96.898438 216 216-96.898438 216-216 216zm20-236.019531h90v40h-90v90h-40v-90h-90v-40h90v-90h40zm0 0"/></svg>

<svg id="Слой_1" data-name="Слой 1" xmlns="http://www.w3.org/2000/svg" viewBox="0 0 512 512"><title>add</title><path d="M437,75A256,256,0,0,0,75,437,256,256,0,0,0,437,75ZM256,472C136.9,472,40,375.1,40,256S136.9,40,256,40s216,96.9,216,216S375.1,472,256,472Zm20-236h90v40H276v90H236V276H146V236h90V146h40Z" fill="#fff"/></svg>
